assets/img/gmail.svg

<svg width="50" height="50" viewBox="0 0 50 50" fill="none" xmlns="http://www.w3.org/2000/svg">
<path d="M12.4852 35.8432H17.1175V24.5935L10.5 19.6303V33.8579C10.5 34.9564 11.3901 35.8432 12.4852 35.8432Z" fill="#4285F4"/>
<path d="M32.9994 35.8432H37.6317C38.7302 35.8432 39.6169 34.9531 39.6169 33.8579V19.6303L32.9994 24.5935" fill="#34A853"/>
<path d="M32.9994 15.9909V24.5935L39.6169 19.6303V16.9835C39.6169 14.5284 36.8144 13.1288 34.8523 14.6012" fill="#FBBC04"/>
<path d="M17.1175 24.5935L17.1175 15.9907L25.0585 21.9465L32.9994 15.9909V24.5935L25.0585 30.5492" fill="#EA4335"/>
<path d="M10.5 16.9835V19.6303L17.1175 24.5935L17.1175 15.9907L15.2646 14.6012C13.2992 13.1288 10.5 14.5284 10.5 16.9835Z" fill="#C5221F"/>
</svg>

<svg xmlns="http://www.w3.org/2000/svg" width="50" height="50" fill="none"><path fill="#4285F4" d="M12.485 35.843h4.633v-11.25L10.5 19.63v14.228c0 1.098.89 1.985 1.985 1.985Z"/><path fill="#34A853" d="M33 35.843h4.632c1.098 0 1.985-.89 1.985-1.985V19.63l-6.618 4.963"/><path fill="#FBBC04" d="M33 15.99v8.603l6.617-4.963v-2.646c0-2.456-2.803-3.855-4.765-2.383"/><path fill="#EA4335" d="M17.117 24.593v-8.602l7.941 5.956L33 15.99v8.602l-7.94 5.956"/><path fill="#C5221F" d="M10.5 16.983v2.647l6.617 4.963v-8.602l-1.852-1.39c-1.966-1.472-4.765-.073-4.765 2.382Z"/></svg>
